X:0
T:Jig of Spurs
M:6/8
C:© Paul Gitlitz 2009
R:jig
K:Bb
"Bb"FBB dBB|"F7"cBc "Bb"dBG|FBB dBB|"F7"~c3 cBG|!
"Bb"FBB dBB|"F7"cBc cde|fgf "Eb"edc|1"Bb"B3-"F7"BAG:|2"Bb"B3-"F7"Bga|!
|:"Gm"bag "F"agf|"Eb"gfe "Bb"fed|"Cm"edc "Bb"dcB|"F"cAG F2F|!
"Gm"GAB "F"ABc|"Bb"Bcd "Cm"cde|"Bb"fdB "F7"ecA|"Bb"~B6:|]
